X:1
T:Title
%%score { ( 1 4 ) | ( 2 3 ) }
L:1/8
M:6/8
K:Ab
V:1 treble nm="Grand Piano"
V:4 treble 
V:2 bass 
V:3 bass 
V:1
 z3 z2[Q:1/4=100] [CE] | [CE]>[_C=D][=CE] [CA]>[EG][_DF] | [DF] [CE]2- [CE]2 [CE] | A>Bc c2 A | %4
[M:5/8] B-B- B3 |[M:1/8] c |[M:3/4] c>B AA- A/B/c | [Fd]F- F3 A | G>F E B2 c | [CA]6 | %10
 [Ac]2 [Ac][Ec] [EB][EA] | F2 A E3 | [Gd]2 [Gd][Gd] cB | c2 [Ae] [GB]3 | c2 c/c/ e2 A | %15
 BA F E2 [Fd] | cB A [GB]2 [Ge] | e3 d3 | c2 c[Ec] [EB][EA] | F2 A E3 | [Gd]2 [Gd][Gd] cB | %21
 c2 [Ae] [GB]3 | c2 c/c/ e2 A | BA F E2 [Fd] | cB A [GB]2 [Ge] |[M:5/8] [EA]-[EA]- [EA]3 |] %26
V:2
 z3 z2 [A,,A,] | [A,,A,]>[A,,A,][A,,A,] [A,,A,]>[A,,A,][A,,A,] | %2
 [A,,A,] [A,,A,]2- [A,,A,]2 [A,,A,] | [A,C]>[A,D][A,E] [A,E]2 [F,A,=D] | %4
[M:5/8] [E,G,E]-[E,G,E]- [E,G,E]3 |[M:1/8] [A,E] | %6
[M:3/4] [D,A,E]>[A,D] [A,C][A,C]- [A,C]/[A,D]/[A,D] | [D,A,][D,A,D]- [D,A,D]3 [D,B,D] | %8
 [E,B,D]>[E,G,D] [E,G,D] [E,G,D]2 [E,G,E] | [A,,A,]6 | [A,E]2 [A,D][A,,A,] [B,,G,][C,A,] | %11
 [D,A,D]2 [F,A,D] [A,C]3 | [E,B,]2 [E,B,]B, [A,A][E,G,E] | [E,A,E]2 [E,C] [E,E]3 | %14
 [A,EA]2 [A,EA]/[A,DA]/ [A,CA]2 A, | B,A, F, E,2 [D,A,] | [E,A,E][E,DE] [E,CE] [E,D]2 [E,D] | %17
 B,3[K:treble] E3 | [A,EA]2 [A,DA][K:bass][A,,A,] [B,,G,][C,A,] | [D,A,D]2 [F,A,D] [A,C]3 | %20
 [E,B,]2 [E,B,]B, [A,A][E,G,E] | [E,A,E]2 [E,C] [E,E]3 | [A,EA]2 [A,EA]/[A,DA]/ [A,CA]2 A, | %23
 B,A, F, E,2 [D,A,] | [E,A,E][E,DE] [E,CE] [E,D]2 [E,D] |[M:5/8] [A,C]-[A,C]- [A,C]3 |] %26
V:3
 x6 | x6 | x6 | x6 |[M:5/8] x5 |[M:1/8] x |[M:3/4] x6 | x6 | x6 | x6 | x6 | x6 | z2 z .E,3 | x6 | %14
 x6 | x6 | x6 | E,6[K:treble] | x3[K:bass] x3 | x6 | z2 z .E,3 | x6 | x6 | x6 | x6 |[M:5/8] x5 |] %26
V:4
 x6 | x6 | x6 | x6 |[M:5/8] x5 |[M:1/8] x |[M:3/4] x6 | x6 | x6 | x6 | x6 | x6 | x6 | x6 | x6 | %15
 x6 | x6 | G6 | x6 | x6 | x6 | x6 | x6 | x6 | x6 |[M:5/8] x5 |] %26

